X:1496
T:Bj\"orndans
S:Christina Eketorp
R:Other
O:Sweden
M:4/4
K:Am
E2EE A2A2|E2EE c2c2|E2EE A2A2|G2G2 A4::\
c4 c2Bc|A6 Ac|
B2B2 G2E2|e2f2 e2d2|\
c4 c2Bc|A6 Ac|B2BB G2E2|A2A2 A4:|


